X: 77
T:Sligo Creek [DeZarn]
M:C|
L:1/8
C:Danny Noveck
S:After Joe DeZarn
R:Reel
K:BMin
e[|:f2ef dB~B2|effe defg|aA~A2 cBAF|EFAB cBce|!
fBef dB~B2|effe defd|eaae fcec|1dBBA B3e:|2dBBA B3A|!
|:FBBA Bcde|fdec df~f2|eA~A2 cBAF|EFAB cBBA|!
G3A Bcde|fdec df~f2|eaae fcec|1ABBA B3A:|2ABBA B3e|]!
